build/redact/RowInsertBelowOutline.svg

<svg xmlns="http://www.w3.org/2000/svg" fill="none" viewBox="0 0 24 24" focusable="false"><path d="M0 0H24V24H0z"/><path fill="#74767B" fill-rule="evenodd" d="M11.3327 8.70688C11.3327 9.06629 11.6258 9.35765 11.9873 9.35765C12.3488 9.35765 12.6419 9.06629 12.6419 8.70688L12.6419 7.33042L14.0264 7.33042C14.3879 7.33042 14.681 7.03906 14.681 6.67965C14.681 6.32024 14.3879 6.02888 14.0264 6.02888L12.6419 6.02888L12.6419 4.65242C12.6419 4.29301 12.3488 4.00165 11.9873 4.00165C11.6258 4.00165 11.3327 4.29301 11.3327 4.65242L11.3327 6.02888L9.94815 6.02888C9.58663 6.02888 9.29356 6.32024 9.29356 6.67965C9.29356 7.03906 9.58663 7.33042 9.94815 7.33042L11.3327 7.33042L11.3327 8.70688ZM5.30918 13.6615L5.30918 16.3473C5.30918 17.6467 6.36874 18.7001 7.67577 18.7001L16.3242 18.7001C17.6313 18.7001 18.6908 17.6467 18.6908 16.3473L18.6908 13.6615L5.30918 13.6615ZM18.6908 12.36L18.6908 9.36303C18.6908 8.24046 17.7755 7.33044 16.6463 7.33044C16.2848 7.33044 15.9917 7.03908 15.9917 6.67967C15.9917 6.32026 16.2848 6.0289 16.6463 6.0289C18.4985 6.0289 20 7.52164 20 9.36303L20 16.3473C20 18.3656 18.3543 20.0016 16.3242 20.0016L7.67577 20.0016C5.6457 20.0016 4 18.3655 4 16.3473L4 9.32695C4 7.50548 5.48525 6.0289 7.3174 6.0289C7.67892 6.0289 7.97199 6.32026 7.97199 6.67967C7.97199 7.03908 7.67892 7.33044 7.3174 7.33044C6.20829 7.33044 5.30918 8.22431 5.30918 9.32695L5.30918 12.36L18.6908 12.36Z"/></svg>

<svg xmlns="http://www.w3.org/2000/svg" fill="none" viewBox="0 0 24 24" focusable="false"><path fill="#74767B" fill-rule="evenodd" d="M11.33 8.7c0 .36.29.65.65.65s.66-.29.66-.65V7.33h1.38c.36 0 .66-.3.66-.66 0-.35-.3-.65-.66-.65h-1.38V4.65c0-.36-.3-.65-.66-.65s-.65.29-.65.65v1.37H9.94a.655.655 0 0 0 0 1.31h1.39zM5.3 13.66v2.68c0 1.3 1.06 2.36 2.37 2.36h8.65c1.31 0 2.37-1.06 2.37-2.36v-2.68zm13.39-1.3v-3c0-1.12-.92-2.03-2.05-2.03a.655.655 0 0 1 0-1.31c1.85 0 3.36 1.5 3.36 3.34v6.98c0 2.02-1.65 3.66-3.68 3.66H7.67C5.64 20 4 18.36 4 16.34V9.32c0-1.82 1.48-3.3 3.31-3.3.36 0 .66.3.66.65 0 .36-.3.66-.66.66A2 2 0 0 0 5.3 9.32v3.04z"/></svg>
